X: 13
T: No_112_"In_the_Treetop".krn
N: Derived from No_112_"In_the_Treetop".krn
%%abc-version 2.0
%%abcx-abcm2ps-target-version 5.9.1 (29 Sep 2008)
%%abc-creator hum2abc beta
%%abcx-conversion-date 2019/03/15 08:36:13
%%humdrum-veritas 3800331125
%%humdrum-veritas-data 2547724964
%%linebreak <none>
%%barnumbers 0
L: 1/16
M: 3/4
K: D clef=bass
[K:clef=bass][M:3/4]z8z2 z D, | 
E,8z3 F, | 
E,8z3 E, | 
D,8z3 D, ||  
[M:2/4](B,,4A,,2) z D, | 
E,8 | 
z4D,D,D,D, ||  
[M:3/4]E,4z3 F, E,2 z E, ||  
[M:2/4]D,8- | 
D,4B,,2 z E, | 
D,7D, | 
B,,4A,,2 z D, | 
E,8- | 
E,4z3 E, | 
D,4B,,2 z D, | 
E,7F, | 
E,4z3 E, | 
D,8- | 
D,4B,,2 z E, ||  
[M:3/4]D,8z3 D, | 
B,,4A,,2 z2z4 |]  



